icons/desktop/20/newsfeed-20.svg

<svg width="20" height="20" viewBox="0 0 20 20" fill="none" xmlns="http://www.w3.org/2000/svg">
<path d="M14.5 12.5C14.9832 12.5 15.375 12.8918 15.375 13.375C15.375 13.8582 14.9832 14.25 14.5 14.25H5.625C5.14175 14.25 4.75 13.8582 4.75 13.375C4.75 12.8918 5.14175 12.5 5.625 12.5H14.5Z" fill="black"/>
<path d="M7.75 5C8.44036 5 9 5.55964 9 6.25V9.25C9 9.94036 8.44036 10.5 7.75 10.5H6C5.30964 10.5 4.75 9.94036 4.75 9.25V6.25C4.75 5.55964 5.30964 5 6 5H7.75Z" fill="black"/>
<path d="M14.5 8.75C14.9832 8.75 15.375 9.14175 15.375 9.625C15.375 10.1082 14.9832 10.5 14.5 10.5H11.75C11.2668 10.5 10.875 10.1082 10.875 9.625C10.875 9.14175 11.2668 8.75 11.75 8.75H14.5Z" fill="black"/>
<path d="M14.5 5C14.9832 5 15.375 5.39175 15.375 5.875C15.375 6.35825 14.9832 6.75 14.5 6.75H11.75C11.2668 6.75 10.875 6.35825 10.875 5.875C10.875 5.39175 11.2668 5 11.75 5H14.5Z" fill="black"/>
<path fill-rule="evenodd" clip-rule="evenodd" d="M10 1C11.8222 1 13.9503 1.11003 16.3047 1.44141C17.8461 1.65804 19 2.98331 19 4.54102V14.9619C19 16.4989 17.8809 17.8359 16.3359 18.0547C14.4697 18.3188 12.3422 18.5 10 18.5C8.17782 18.5 6.04975 18.39 3.69531 18.0586C2.15386 17.842 1 16.5167 1 14.959V4.53809C1 3.00109 2.11905 1.66415 3.66406 1.44531C5.53032 1.18118 7.65779 1 10 1ZM10 2.75C7.74821 2.75 5.70292 2.92484 3.90918 3.17871C3.25057 3.2722 2.75 3.84934 2.75 4.53809V14.959C2.75 15.6432 3.26009 16.2297 3.93848 16.3252C6.20193 16.6438 8.24825 16.75 10 16.75C12.2518 16.75 14.2971 16.5752 16.0908 16.3213C16.7494 16.2278 17.25 15.6507 17.25 14.9619V4.54102C17.25 3.85684 16.7399 3.27032 16.0615 3.1748C13.7981 2.85622 11.7517 2.75 10 2.75Z" fill="black"/>
</svg>

<!-- This Source Code Form is subject to the terms of the Mozilla Public
   - License, v. 2.0. If a copy of the MPL was not distributed with this
   - file, You can obtain one at http://mozilla.org/MPL/2.0/. -->
<svg xmlns="http://www.w3.org/2000/svg" width="20" height="20" fill="context-fill" fill-opacity="context-fill-opacity" viewBox="0 0 20 20">
    <path d="M14.5 12.5a.875.875 0 0 1 0 1.75H5.625a.875.875 0 0 1 0-1.75zM7.75 5C8.44 5 9 5.56 9 6.25v3c0 .69-.56 1.25-1.25 1.25H6c-.69 0-1.25-.56-1.25-1.25v-3C4.75 5.56 5.31 5 6 5zM14.5 8.75a.875.875 0 0 1 0 1.75h-2.75a.875.875 0 0 1 0-1.75zM14.5 5a.875.875 0 0 1 0 1.75h-2.75a.875.875 0 0 1 0-1.75z" />
    <path fill-rule="evenodd" d="M10 1c1.822 0 3.95.11 6.305.441A3.136 3.136 0 0 1 19 4.541v10.42c0 1.538-1.12 2.875-2.664 3.094a45.2 45.2 0 0 1-12.64.004A3.136 3.136 0 0 1 1 14.959V4.539C1 3 2.119 1.663 3.664 1.444A45 45 0 0 1 10 1m0 1.75a43.5 43.5 0 0 0-6.09.429c-.66.093-1.16.67-1.16 1.36v10.42c0 .684.51 1.27 1.188 1.366a43.5 43.5 0 0 0 12.153-.004 1.365 1.365 0 0 0 1.159-1.36V4.542c0-.684-.51-1.27-1.189-1.366A43.5 43.5 0 0 0 10 2.75" clip-rule="evenodd" />
</svg>
